X: 1
T: Vieille Branche
T: Old Chap
O: Trad Qu\'ebec
R: jig
Z: 2006 John Chambers <jc:trillian.mit.edu>
F: http://tradquebec.over-blog.com/article-4344084.html
N: Also played AABB for 48 bars
M: 6/8
L: 1/8
K: G
B,C \
|: "G"D2G "C"E2G | "G"DGA  B3  | "G"BAB dcB | "D7"AGA "G"BB,C \
|  "G"D2G "C"E2G | "G"DGA  B3  | "G"BAB dcB | "D7"AGF "G"Gy :|
Bc \
|  "G"d^cd e2d | "G"B2G  D3  | "G"d^cd e2d | "Am"c2A E3   \
|  "Am"e^de f2e | "Am"c2A  E2e | "Am"e^de f2e | "D7"d3  d_dc |
y2 \
|  "G"d^cd e2d | "G"B2G  D3  | "G"g3   gfg | "C"aee e3   \
|  "C"e^de "D7"f2e | "G"d^cd "Em"e2d | "D7"ded  cBA | "G"GBA Gy |]
